大富翁/playground.svg

<svg height="30.0px" stroke-miterlimit="10" style="fill-rule:nonzero;clip-rule:evenodd;stroke-linecap:round;stroke-linejoin:round;" version="1.1" viewBox="0 0 30 30" width="30.0px" xml:space="preserve" xmlns="http://www.w3.org/2000/svg" xmlns:xlink="http://www.w3.org/1999/xlink">
<defs/>
<path d="M15.7895 18.9474L14.2105 17.3684L14.2105 30L15.7895 30L15.7895 18.9474ZM20.5263 23.6842L18.9474 22.1053L18.9474 30L20.5263 30L20.5263 23.6842Z" fill="#ef6c00" fill-rule="nonzero" opacity="1" stroke="none"/>
<path d="M0 15L1.57895 15L1.57895 30L0 30L0 15ZM9.47368 15L11.0526 15L11.0526 30L9.47368 30L9.47368 15Z" fill="#009688" fill-rule="nonzero" opacity="1" stroke="none"/>
<path d="M2.36842 18.1579L9.47368 18.1579L9.47368 19.7368L2.36842 19.7368L2.36842 18.1579ZM2.36842 21.3158L9.47368 21.3158L9.47368 22.8947L2.36842 22.8947L2.36842 21.3158ZM2.36842 24.4737L9.47368 24.4737L9.47368 26.0526L2.36842 26.0526L2.36842 24.4737ZM2.36842 27.6316L9.47368 27.6316L9.47368 29.2105L2.36842 29.2105L2.36842 27.6316Z" fill="#00796b" fill-rule="nonzero" opacity="1" stroke="none"/>
<path d="M1.57895 18.1579L2.36842 18.1579L2.36842 19.7368L1.57895 19.7368L1.57895 18.1579ZM1.57895 21.3158L2.36842 21.3158L2.36842 22.8947L1.57895 22.8947L1.57895 21.3158ZM1.57895 24.4737L2.36842 24.4737L2.36842 26.0526L1.57895 26.0526L1.57895 24.4737ZM1.57895 27.6316L2.36842 27.6316L2.36842 29.2105L1.57895 29.2105L1.57895 27.6316Z" fill="#004d40" fill-rule="nonzero" opacity="1" stroke="none"/>
<path d="M11.0526 5.52632L0 5.52632L5.52632 0L11.0526 5.52632Z" fill="#f44336" fill-rule="nonzero" opacity="1" stroke="none"/>
<path d="M0 5.52632L0 16.5789L11.0526 16.5789L11.0526 5.52632L0 5.52632Z" fill="#2196f3" fill-rule="nonzero" opacity="1" stroke="none"/>
<path d="M5.52632 7.89474C3.78947 7.89474 2.36842 9.31579 2.36842 11.0526C2.36842 12.7895 3.78947 14.2105 5.52632 14.2105C7.26316 14.2105 8.68421 12.7895 8.68421 11.0526C8.68421 9.31579 7.26316 7.89474 5.52632 7.89474Z" fill="#0d47a1" fill-rule="nonzero" opacity="1" stroke="none"/>
<path d="M30 30L25.2632 30L12.6316 16.5789L11.0526 16.5789L11.0526 11.0526L11.6842 11.0526C12.3158 11.0526 12.8684 11.3684 13.1053 11.9211L15 15.7895L25.2632 26.8421L28.4211 26.8421C29.2895 26.8421 30 27.5526 30 28.4211L30 30Z" fill="#ff9800" fill-rule="nonzero" opacity="1" stroke="none"/>
</svg>

<svg height="30" viewBox="0 0 30 30" stroke-miterlimit="10" width="30" xmlns="http://www.w3.org/2000/svg" clip-rule="evenodd" stroke-linecap="round" stroke-linejoin="round"><path d="M15.79 18.947l-1.58-1.579V30h1.58V18.947zm4.736 4.737l-1.579-1.579V30h1.58v-6.316z" fill="#ef6c00"/><path d="M0 15h1.579v15H0V15zm9.474 0h1.579v15h-1.58V15z" fill="#009688"/><path d="M2.368 18.158h7.106v1.579H2.368v-1.58zm0 3.158h7.106v1.579H2.368v-1.58zm0 3.158h7.106v1.579H2.368v-1.58zm0 3.158h7.106v1.578H2.368v-1.578z" fill="#00796b"/><path d="M1.579 18.158h.79v1.579h-.79v-1.58zm0 3.158h.79v1.579h-.79v-1.58zm0 3.158h.79v1.579h-.79v-1.58zm0 3.158h.79v1.578h-.79v-1.578z" fill="#004d40"/><path d="M11.053 5.526H0L5.526 0l5.527 5.526z" fill="#f44336"/><path d="M0 5.526V16.58h11.053V5.526H0z" fill="#2196f3"/><path d="M5.526 7.895a3.167 3.167 0 00-3.158 3.158 3.167 3.167 0 003.158 3.157 3.167 3.167 0 003.158-3.157 3.167 3.167 0 00-3.158-3.158z" fill="#0d47a1"/><path d="M30 30h-4.737L12.632 16.579h-1.58v-5.526h.632c.632 0 1.184.315 1.421.868L15 15.79l10.263 11.052h3.158c.869 0 1.579.71 1.579 1.58V30z" fill="#ff9800"/></svg>
